src/assets/icons/delete.svg

<?xml version="1.0" encoding="UTF-8"?>
<svg width="14px" height="16px" viewBox="0 0 14 16" version="1.1" xmlns="http://www.w3.org/2000/svg" xmlns:xlink="http://www.w3.org/1999/xlink">
    <!-- Generator: Sketch 42 (36781) - http://www.bohemiancoding.com/sketch -->
    <title>trash</title>
    <desc>Created with Sketch.</desc>
    <defs></defs>
    <g id="Version-2" stroke="none" stroke-width="1" fill="none" fill-rule="evenodd">
        <g id="Catalog---Actions---Hover" transform="translate(-715.000000, -281.000000)" fill="#607d8b">
            <g id="Group" transform="translate(380.000000, 272.000000)">
                <g id="Group-2" transform="translate(325.000000, 0.000000)">
                    <path d="M23.0220846,12.629483 L23.0220846,12.659251 C23.0220846,12.9817908 22.7259392,13.2751959 22.4006193,13.2751959 L11.5762367,13.2751959 C11.2574362,13.2751959 10.9779154,12.9862244 10.9779154,12.6567176 C10.9779154,12.3113768 11.271779,12.0084712 11.607041,12.0084712 L22.4006193,12.0084712 C22.7259392,12.0084712 23.0220846,12.3044098 23.0220846,12.629483 L23.0220846,12.629483 Z M21.4173254,23.1048215 C21.3956483,23.313356 20.2439899,24.0499565 16.8286203,24.0499565 C13.3614212,24.0499565 12.5561079,23.3011638 12.5424171,23.1130552 L11.8508679,14.3835801 L21.9660989,14.3835801 L21.4173254,23.1048215 Z M14.3838318,10.9874911 C14.3838318,10.3476368 14.762611,9.95004354 15.3725043,9.95004354 L18.3616657,9.95004354 C18.994377,9.95004354 19.4363948,10.3766131 19.4363948,10.9874911 L19.4363948,11.0584277 L14.3838318,11.0584277 L14.3838318,10.9874911 Z M18.3616657,9 C19.5319045,9 20.4143102,9.85456417 20.4143102,10.9874911 L20.4143102,11.0584277 L22.4006193,11.0584277 C23.2675414,11.0584277 24,11.7779273 24,12.629483 L24,12.659251 C24,13.3155728 23.5615679,13.8914575 22.9622688,14.1197847 L22.393611,23.1605574 C22.3267867,24.3115351 20.2464347,25 16.8286203,25 C12.3659033,25 11.6166572,23.8616895 11.5672724,23.1830417 L10.8426371,14.0379226 C10.3461821,13.770327 10,13.2454279 10,12.6567176 C10,11.7902779 10.7358813,11.0584277 11.607041,11.0584277 L13.4059164,11.0584277 L13.4059164,10.9874911 C13.4059164,9.81719579 14.2146524,9 15.3725043,9 L18.3616657,9 Z M16.7251765,21.8406533 C16.9952442,21.8406533 17.2141343,21.6280018 17.2141343,21.3656315 L17.2141343,16.140392 C17.2141343,15.8780216 16.9952442,15.6653702 16.7251765,15.6653702 C16.4551089,15.6653702 16.2362188,15.8780216 16.2362188,16.140392 L16.2362188,21.3656315 C16.2362188,21.6280018 16.4551089,21.8406533 16.7251765,21.8406533 Z M19.1760379,21.8406533 C19.4461056,21.8406533 19.6649956,21.6280018 19.6649956,21.3656315 L19.6649956,16.140392 C19.6649956,15.8780216 19.4461056,15.6653702 19.1760379,15.6653702 C18.9059703,15.6653702 18.6870802,15.8780216 18.6870802,16.140392 L18.6870802,21.3656315 C18.6870802,21.6280018 18.9059703,21.8406533 19.1760379,21.8406533 Z M14.4103359,21.8406533 C14.6804035,21.8406533 14.8992936,21.6280018 14.8992936,21.3656315 L14.8992936,16.140392 C14.8992936,15.8780216 14.6804035,15.6653702 14.4103359,15.6653702 C14.1402683,15.6653702 13.9213782,15.8780216 13.9213782,16.140392 L13.9213782,21.3656315 C13.9213782,21.6280018 14.1402683,21.8406533 14.4103359,21.8406533 Z" id="trash"></path>
                </g>
            </g>
        </g>
    </g>
</svg>

<svg width="14" height="16" viewBox="0 0 14 16" xmlns="http://www.w3.org/2000/svg"><g id="Version-2" fill="none" fill-rule="evenodd"><g id="Catalog---Actions---Hover" transform="translate(-715 -281)" fill="#607d8b"><g id="Group" transform="translate(380 272)"><g id="Group-2" transform="translate(325)"><path d="M23.022 12.63v.03a.643.643 0 0 1-.621.615H11.576c-.319 0-.598-.289-.598-.618 0-.346.294-.649.629-.649h10.794c.325 0 .621.296.621.621zm-1.605 10.475c-.021.208-1.173.945-4.588.945-3.468 0-4.273-.749-4.287-.937l-.691-8.73h10.115l-.549 8.722zm-7.033-12.118c0-.64.379-1.037.989-1.037h2.989c.632 0 1.074.427 1.074 1.037v.071h-5.052v-.07zM18.362 9c1.17 0 2.052.855 2.052 1.987v.071h1.987c.867 0 1.599.72 1.599 1.571v.03c0 .657-.438 1.232-1.038 1.46l-.568 9.042C22.327 24.31 20.246 25 16.829 25c-4.463 0-5.212-1.138-5.262-1.817l-.724-9.145A1.587 1.587 0 0 1 10 12.657c0-.867.736-1.599 1.607-1.599h1.799v-.07c0-1.17.809-1.988 1.967-1.988h2.989zm-1.637 12.84c.27 0 .49-.212.49-.474V16.14a.482.482 0 0 0-.49-.475.482.482 0 0 0-.489.475v5.226c0 .262.22.475.49.475zm2.451 0c.27 0 .489-.212.489-.474V16.14a.482.482 0 0 0-.489-.475.482.482 0 0 0-.489.475v5.226c0 .262.219.475.489.475zm-4.766 0c.27 0 .49-.212.49-.474V16.14a.482.482 0 0 0-.49-.475.482.482 0 0 0-.489.475v5.226c0 .262.22.475.49.475z" id="trash"/></g></g></g></g></svg>
